X:1
T:Chartres, 87.87 D
T:Chartres, 87.87 D
T:15th Century French melody
T:Public Domain Courtesy of the Cyber Hymnal™
C:15th Century French melody
Z:Public Domain
Z:Courtesy of the Cyber Hymnal™
%%score ( 1 2 ) 3
L:1/8
Q:1/4=97
M:4/4
K:Bb
V:1 treble 
V:2 treble 
V:3 bass 
V:1
 GG | [Gd]3 [Gd] A[GB] | [Gc]2 [Gc]2 GG | B3 z c[GA][^FB] | G4 GG | [Gd]3 [Gd] A[GB] | %6
 [Gc]2 [Gc]2 GG | B3 z c[GA][^FB] | G4 [DG][DG] | [DA]3 [D^F] [DG][DA] | [DB]2 [DB]2 [DG][DG] | %11
 [Cc]3 [CB] [EA][EG] | [D^F]4 [DG][DG] | [DA]3 [D^F] [=EG][FA] | [GB]2 [GB]2 [DG][DG] | %15
 [EA]3 [EG] [DG][D^F] | [B,G]4 |] %17
V:2
 GG | x4 A x | x4 GG | G2 G2 x3 | G4 GG | x4 A x | x4 GG | G2 G2 x3 | G4 x2 | x6 | x6 | x6 | x6 | %13
 x6 | x6 | x6 | x4 |] %17
V:3
 [G,B,][G,B,] | [B,D]3 [G,B,] [^F,D][G,D] | [C,E]2 [C,E]2 [E,E][E,E] | [D,D]2 [C,E]2 [D,D][D,D] x | %4
 [G,B,]4 [G,B,][G,B,] | [B,D]3 [G,B,] [^F,D][G,D] | [C,E]2 [C,E]2 [E,C][E,C] | %7
 [D,D]2 [C,E]2 [D,D][D,D] x | [G,B,]4 [G,,B,][G,,B,] | [D,^F,]3 [C,A,] [B,,G,][A,,F,] | %10
 [G,,G,]2 [G,,G,]2 [B,,G,][B,,G,] | [E,G,]3 [E,G,] [C,C][C,B,] | [D,A,]4 [G,B,][G,B,] | %13
 [^F,A,]3 [D,A,] [D,D][C,D] | [B,,D]2 [G,,D]2 [B,,D][B,,D] | [C,C]3 [C,C] [D,A,][D,A,] | %16
 [G,,G,]4 |] %17

